X: 41780
T: Vega Mandolin
R: jig
M: 6/8
K: Dmixolydian
~f3 ed^c|dAB c2 B|Add cAG|FGA ^cde|
~f3 edc|dAB c2 B|Add cAG|1 FDD D2 e`:|2 FDD D2 C`||
A,B,C A,B,C`|Add c2 B|Add cAG|FED FED|
A,B,C A,B,C`|Add c2 B|Add cAG|1 FDD D2 C`:|2 FDD D2 e||
~f3 ~g3|~f3 ed^c|Add cAG|FGA cde|
~f3 ~g3|~f3 ed^c|Add cAG|1 FDD D2 e`:|2 FDD D2 a||
aba age|~g3 gec|Add cAG|FGA cde|
aba age|~g3 gec|Add cAG|FDD D2 g|
aba age|~g3 gec|Add cAG|FGA cdeS|
fed ed^c|dAB c2 B|Add cAG|FDD D2e`:|
S fed ed^c|dAB c2A|fed ed^c|dAG FED|
fed ed^c|dAB c2 B|Add cAG|E3 D3`||

